Papirus/32x32/apps/josm.svg

<svg width="32" height="32" version="1.1" xmlns="http://www.w3.org/2000/svg">
 <path d="m3.0209664 5.2758186v22.882163s-0.2066177 1.235811 0.6773861 1.495738l8.3016475 2.34628 8-2.578947 7.769932 2.219615c1.315243 0.467749 1.222077-0.933479 1.222077-0.933479v-23.06425c0.121582-1.198647-1.18445-1.4457508-1.18445-1.4457508l-7.807559-2.1971864-8 2.578947-7.8482852-2.2464688s-1.1307484-0.320149-1.1307484 0.9433386z" style="opacity:.2"/>
 <path d="m 3.0214844,11.443359 -5.18e-4,15.714621 c 0,0 -0.2066177,1.235811 0.6773861,1.495738 L 4.0527344,28.753906 16.439453,29.570312 20,28.421051 l 1.689453,0.483246 7.302556,0.80289 V 6.642937 C 29.113591,5.44429 27.807559,5.1971862 27.807559,5.1971862 L 20,2.9999998 19.390625,3.1972656 17,6 15.964844,4.3007812 12,5.5789468 10,5 Z" style="fill:#ffc107"/>
 <path d="m19.390625 3.1972656-3.425781 1.1035156c-0.758548 0.8946512-1.203125 1.9628109-1.203125 3.4707032 0 2.0681835 0.817731 2.5053636 1.083984 3.4999996 0.505638 1.889046 0.700188 3.220392 1.304688 4.773438 0.831845 2.137864 0.12949 5.511266 1.015625 7.636719 0.505515 1.212592 0.775111 1.431996 2.167968 2.068359 0.309524 0.318181 0.772974 0.953303 0.927735 1.271484 0.29636 0.609277 0.279165 1.34935 0.427734 1.882813l6.080078 1.736328c0.493216 0.175406 0.788647 0.087787 0.964844-0.089844 0.152152-0.15339 0.202651-0.365831 0.228516-0.542969 0.004118-0.027962 0.020995-0.062513 0.023437-0.08789 1.08e-4 -0.001137-1.05e-4 -8.23e-4 0-0.001953 0.011816-0.124057 0.00586-0.210938 0.00586-0.210938v-0.355469c-0.640167-5.989785-4.645674-6.918631-6.314454-8.351562-1.879243-1.613627-0.678419-3.156959-1.416015-5.431641-0.175344-0.54075-0.618211-2.386897-0.927735-2.705078-1.392857-0.954547-2.166573-1.90909-2.630859-3.4999998-0.91348-3.1302009 1.741654-5.0290674 1.6875-6.1660156zm-10.40625 23.484375c-0.1345911-0.01056-0.2704635-0.003353-0.4121094 0.023437-1.2920454 0.243632-1.2384671 1.749823-2.4765625 1.431641-0.6303748-0.161935-1.4913239 0.074459-2.0429687 0.617187l7.9472656 2.246094 4.439453-1.429688c-0.965799-1.496611-3.718366-3.722936-4.439453-2.388671-0.947917 0.417614-2.0734846-0.426073-3.015625-0.5z" style="fill:#0c7bd4"/>
 <path d="m15.964844 4.3007812c-0.758548 0.8946512-1.203125 1.9628109-1.203125 3.4707032 0 0.1799024 0.0081 0.3433392 0.01953 0.5 0.08876-1.2487469 0.512046-2.1786628 1.183594-2.9707032zm1.582031 4.25c-0.06497 0.5534064-0.03572 1.1546928 0.15625 1.8124998 0.464286 1.590909 1.238002 2.545453 2.630859 3.5 0.309524 0.318181 0.752391 2.164328 0.927735 2.705078 0.737596 2.274682-0.463228 3.818014 1.416015 5.431641 1.63991 1.408141 5.533508 2.333111 6.275391 8.048828 0.0022-0.01326 0.0079-0.02809 0.0098-0.04102 0.0041-0.02796 0.02099-0.06251 0.02344-0.08789v-2e-3c0.01182-0.124057 0.0059-0.210938 0.0059-0.210938v-0.355418c-0.640244-5.989785-4.645751-6.918631-6.314531-8.351562-1.879243-1.613627-0.678419-3.156959-1.416015-5.431641-0.175344-0.54075-0.618211-2.386897-0.927735-2.705078-1.392857-0.954547-2.166573-1.90909-2.630859-3.4999998-0.082267-0.2819018-0.127285-0.5502289-0.15625-0.8125zm-8.765625 18.128907c-0.068498 0.0038-0.1381614 0.012-0.2089844 0.02539-1.2920454 0.243632-1.2384671 1.749823-2.4765625 1.431641-0.6303748-0.161935-1.4913239 0.07446-2.0429687 0.617187l1.2792968 0.361328c0.2680005-0.04396 0.531293-0.03821 0.7636719 0.02148 1.2380954 0.318182 1.1845171-1.188009 2.4765625-1.431641 0.1416459-0.02684 0.2775183-0.034 0.4121094-0.02344 0.9421404 0.07393 2.067708 0.917614 3.015625 0.5 0.599571-1.109419 2.600845 0.242248 3.814453 1.589843l0.625-0.201172c-0.965799-1.496603-3.718366-3.722928-4.439453-2.388663-0.947917 0.417614-2.0734846-0.426073-3.015625-0.5-0.067296-0.0053-0.1346273-0.0058-0.203125-2e-3z" style="opacity:.2"/>
 <path d="m3.8964844 4.3090048c-0.074625-0.00324-0.1559937 0.00103-0.2441406 0.017578-0.032083 0.00621-0.063454 0.00738-0.095703 0.017578-0.020458 0.00648-0.040302 0.017069-0.060547 0.025391-0.05954 0.024539-0.1159022 0.059973-0.1699219 0.1035156-0.023657 0.019119-0.046525 0.041042-0.068359 0.064453-0.04766 0.051218-0.085638 0.1187296-0.1210937 0.1933594-0.015667 0.033012-0.034274 0.061445-0.046875 0.099609-0.040111 0.1216064-0.06816 0.2640856-0.068359 0.4453125-9e-7 7.766e-4 0 0.00118 0 0.00195v7.1660157c0.2970014-0.140729 0.6976517-0.330078 0.90625-0.330078 0.6718833 0 1.0842456 0.159264 1.7695312 0.06836 0.4229334-0.05622 0.7120021-0.467241 1.1054688-0.56836 0.3717379-0.09545 0.8601325-0.06667 1.2167968-0.25 0.4868803-0.250089 1.1710196-0.999651 1.5468742-2.613278 0.1087356-0.4669-0.1328124-0.977805-0.1328124-1.4550781 0-0.2900287 0.297196-0.8543251 0.5664062-1.2890625l-5.8417969-1.671875-0.00586-0.00195s-0.00194 4.6e-6 -0.00195 0c0 0-0.1353923-0.01412-0.2539062-0.023437z" style="opacity:.2"/>
 <path d="m15.845238 14.341319-0.309524-1.272727-1.702381 1.431819 0.309524 1.272726z" style="opacity:.2"/>
 <path d="M 7.3333333,25.318591 12,25.00041 13.678572,23.727682 V 20.704955 L 12,21.977682 7.3333333,22.454955 Z" style="opacity:.2"/>
 <path d="M 13.76919,18.159501 13.304904,15.804955 12,16.727684 9.8095242,17.204956 9.0357143,13.227683 l -3.25,0.795455 L 7.0238091,20.7845 12,19.591319 Z" style="opacity:.2"/>
 <path d="m25.285714 8.7731377v2.8636363l2.630952 0.795453v-2.8636343z" style="opacity:.2"/>
 <path d="m12 7.8185928 3.535714-1.2727276v1.2727276l-0.928572 0.3181816v0.4226408l-2.607142 1.0091775-0.797619-0.1590916v-1.7499995z" style="opacity:.2"/>
 <path d="m23.273809 18.477683 2.630953 1.75 0.928571-1.272728-2.630952-1.749999z" style="opacity:.2"/>
 <path d="m26.678168 13.704563-0.928168 1.273644 2.63075 1.75 0.610786-0.837583v-0.647615z" style="opacity:.2"/>
 <path d="m24.511904 16.727684 2.630952 1.749999 0.928572-1.272727-2.630952-1.75z" style="opacity:.2"/>
 <path d="m3.8964844 3.3085938c-0.0746249-0.0032376-0.1559937 0.001034-0.2441406 0.0175781-0.0320826 0.0062108-0.0634544 0.00738-0.0957032 0.0175781-0.0204579 0.0064834-0.0403024 0.017069-0.0605468 0.0253906-0.0595398 0.0245394-0.1159022 0.0599731-0.1699219 0.1035156-0.0236574 0.0191195-0.0465253 0.041042-0.0683594 0.0644532-0.04766 0.0512181-0.0856378 0.1187296-0.1210937 0.1933594-0.0156667 0.0330117-0.0342745 0.061445-0.046875 0.0996093-0.0401107 0.1216064-0.0681595 0.2640856-0.0683594 0.4453125-9e-7 7.766e-4 0 0.0011754 0 0.0019532v7.1660152c0.2970014-0.140729 0.6976517-0.330078 0.90625-0.330078 0.6718833 0 1.0842456 0.159264 1.7695312 0.06836 0.4229334-0.05622 0.7120021-0.467241 1.1054688-0.56836 0.3717379-0.09545 0.8601325-0.06667 1.2167968-0.25 0.4868811-0.250092 1.1710204-0.9996543 1.546875-2.613281 0.1087356-0.4669-0.1328124-0.977805-0.1328124-1.4550781 0-0.2900287 0.297196-0.8543251 0.5664062-1.2890625l-5.8417969-1.671875-0.0058593-0.0019532s-0.001937 4.6e-6 -0.0019532 0c0 0-0.1353923-0.0141204-0.2539062-0.0234374z" style="fill:#4caf50"/>
 <path d="m15.845238 13.340908-0.309524-1.272727-1.702381 1.431819 0.309524 1.272726z" style="fill:#81c784"/>
 <path d="M 7.3333333,24.31818 12,23.999999 13.678572,22.727271 V 19.704544 L 12,20.977271 7.3333333,21.454544 Z" style="fill:#4d7687"/>
 <path d="m13.76919 17.15909-0.464286-2.354546-1.304904 0.922729-2.1904758 0.477272-0.7738099-3.977273-3.25 0.795455 1.2380948 6.761362 4.9761909-1.193181z" style="fill:#df5050"/>
 <path d="m25.285714 7.7727267v2.8636363l2.630952 0.795453v-2.8636343z" style="fill:#ff8a65"/>
 <path d="m12 6.8181818 3.535714-1.2727276v1.2727276l-0.928572 0.3181816v0.4226408l-2.607142 1.0091775-0.797619-0.1590916v-1.7499995z" style="fill:#00bcd4"/>
 <path d="m23.273809 17.477272 2.630953 1.75 0.928571-1.272728-2.630952-1.749999z" style="fill:#b89b00"/>
 <path d="m26.678168 12.704152-0.928168 1.273644 2.63075 1.75 0.610786-0.837583v-0.647615z" style="fill:#b89b00"/>
 <path d="m24.511904 15.727273 2.630952 1.749999 0.928572-1.272727-2.630952-1.75z" style="fill:#b89b00"/>
 <path d="m5.2597656 13.563322-0.4640842 0.159745 1.0523004 6.204152-0.1452908 5.175164 0.5275606-0.08203 0.1438803-5.124794zm0.970486 11.457031-0.011288 0.379934-0.52615 0.03166 0.00987-0.329563-0.07194 0.01152-2.6095919 1.876645v0.16694s-0.054874 0.353804 0.02539 0.722451l2.7393697-1.970195 0.3089191-0.09642 5.9051695-0.381374 2.452578-1.75-0.155165-0.795846-2.297413 1.75-5.75 0.381369z" style="fill:#646464"/>
 <ellipse cx="5.956" cy="25.448" rx=".418" ry=".43" style="fill:#222222;stroke-linecap:round;stroke-linejoin:round;stroke-width:.25105834;stroke:#ffffff"/>
 <ellipse cx="14.452" cy="23.22" rx=".418" ry=".43" style="fill:#222222;stroke-linecap:round;stroke-linejoin:round;stroke-width:.25105834;stroke:#ffffff"/>
 <ellipse cx="5.012" cy="13.675" rx=".418" ry=".43" style="fill:#222222;stroke-linecap:round;stroke-linejoin:round;stroke-width:.25105834;stroke:#ffffff"/>
 <ellipse cx="6.095" cy="19.911" rx=".418" ry=".43" style="fill:#222222;stroke-linecap:round;stroke-linejoin:round;stroke-width:.25105834;stroke:#ffffff"/>
 <path d="m3.0209664 4.2758166v22.882163s-0.2066177 1.235811 0.6773861 1.495738l8.3016475 2.34628v-25.421051l-7.8482852-2.2464688s-1.1307484-0.320149-1.1307484 0.9433386z" style="fill:#ffffff;opacity:.3"/>
 <path d="m20 28.421051 7.769932 2.219615c1.315243 0.467749 1.222077-0.933479 1.222077-0.933479v-23.06425c0.121582-1.198647-1.18445-1.4457508-1.18445-1.4457508l-7.807559-2.1971864z" style="fill:#ffffff;opacity:.3"/>
 <path d="m20 3-8 2.578125-7.8476562-2.2460938s-1.1308594-0.3201282-1.1308594 0.9433594v1c0-1.2634876 1.1308594-0.9433594 1.1308594-0.9433594l7.8476562 2.2460938 8-2.578125 7.806641 2.1972656s1.307129 0.2466655 1.185547 1.4453125v-1c0.121582-1.198647-1.185547-1.4453125-1.185547-1.4453125zm-16.978516 24.158203s-0.031212 0.253205 0 0.544922z" style="fill:#ffffff;opacity:.2"/>
 <path d="m25.964844 2c-1.187768 0.037141-2.242644 1.1503771-2.646485 1.875l-8.005859 14.654297-0.228516 4.011719-0.083984 1.458984 1.142578-0.837891 3.142578-2.30664 0.101563-0.07422 8.177734-14.773438c0.921377-1.5673999 0.245472-3.4001044-0.761719-3.843749-0.281822-0.1241362-0.56379-0.1726335-0.83789-0.1640625z" style="opacity:.2"/>
 <path d="m15.313157 17.52853-0.229927 4.013366 1.059353 0.620195 3.142796-2.306038z" style="fill:#d9c8b0"/>
 <path d="M 15.08323,21.541896 15,23 16.142578,22.162091 Z" style="fill:#505050"/>
 <path d="m25.964524 1.0009691c-1.187768 0.037141-2.242427 1.1502864-2.646268 1.8749093l-8.005099 14.652652 3.972222 2.327523 0.101562-0.07448 8.177192-14.774399c0.921377-1.5674009 0.245472-3.3992758-0.761719-3.8429204-0.281822-0.1241362-0.56379-0.17185568-0.83789-0.1632847z" style="fill:#a15f34"/>
 <path d="m25.964844 2c-1.187768 0.037141-2.242644 1.1503771-2.646485 1.875l-8.005859 14.654297-0.228516 4.011719-0.083984 1.458984 1.142578-0.837891 3.142578-2.30664 0.101563-0.07422 8.177734-14.773438c0.921377-1.5673999 0.245472-3.4001044-0.761719-3.843749-0.281822-0.1241362-0.56379-0.1726335-0.83789-0.1640625z" style="opacity:0"/>
 <path d="m25.964844 1c-1.187768 0.037141-2.242644 1.1503771-2.646485 1.875l-8.005859 14.654297-0.228516 4.011719-0.083984 1.458984 0.060547-0.044922 0.023437-0.414062 0.228516-4.011719 8.005859-14.654297c0.403841-0.7246229 1.458717-1.837859 2.646485-1.875 0.2741-0.008571 0.556068 0.0399263 0.83789 0.1640625 0.560673 0.2469633 1.017329 0.9255777 1.154297 1.7480469 0.198758-1.2362121-0.377213-2.4057592-1.154297-2.7480469-0.281822-0.1241362-0.56379-0.17263348-0.83789-0.1640625z" style="fill:#ffffff;opacity:.2"/>
</svg>

<svg xmlns="http://www.w3.org/2000/svg" width="32" height="32" version="1.1">
 <path style="opacity:0.2" d="M 3.0209664,5.2758186 V 28.157982 c 0,0 -0.2066177,1.235811 0.6773861,1.495738 L 12,32 l 8,-2.578947 7.769932,2.219615 c 1.315243,0.467749 1.222077,-0.933479 1.222077,-0.933479 V 7.642939 C 29.113591,6.444292 27.807559,6.1971882 27.807559,6.1971882 L 20,4.0000018 12,6.5789488 4.1517148,4.33248 c 0,0 -1.1307484,-0.320149 -1.1307484,0.9433386 z"/>
 <path style="fill:#ffc107" d="M 3.0209664,4.2758166 V 27.15798 c 0,0 -0.2066177,1.235811 0.6773861,1.495738 L 12,30.999998 l 8,-2.578947 7.769932,2.219615 c 1.315243,0.467749 1.222077,-0.933479 1.222077,-0.933479 V 6.642937 C 29.113591,5.44429 27.807559,5.1971862 27.807559,5.1971862 L 20,2.9999998 12,5.5789468 4.1517148,3.332478 c 0,0 -1.1307484,-0.320149 -1.1307484,0.9433386 z"/>
 <path style="fill:#0c7bd4" d="M 19.390625 3.1972656 L 15.964844 4.3007812 C 15.206296 5.1954324 14.761719 6.2635921 14.761719 7.7714844 C 14.761719 9.8396679 15.57945 10.276848 15.845703 11.271484 C 16.351341 13.16053 16.545891 14.491876 17.150391 16.044922 C 17.982236 18.182786 17.279881 21.556188 18.166016 23.681641 C 18.671531 24.894233 18.941127 25.113637 20.333984 25.75 C 20.643508 26.068181 21.106958 26.703303 21.261719 27.021484 C 21.558079 27.630761 21.540884 28.370834 21.689453 28.904297 L 27.769531 30.640625 C 28.262747 30.816031 28.558178 30.728412 28.734375 30.550781 C 28.886527 30.397391 28.937026 30.18495 28.962891 30.007812 C 28.967009 29.97985 28.983886 29.945299 28.986328 29.919922 C 28.986436 29.918785 28.986223 29.919099 28.986328 29.917969 C 28.998144 29.793912 28.992188 29.707031 28.992188 29.707031 L 28.992188 29.351562 C 28.352021 23.361777 24.346514 22.432931 22.677734 21 C 20.798491 19.386373 21.999315 17.843041 21.261719 15.568359 C 21.086375 15.027609 20.643508 13.181462 20.333984 12.863281 C 18.941127 11.908734 18.167411 10.954191 17.703125 9.3632812 C 16.789645 6.2330803 19.444779 4.3342138 19.390625 3.1972656 z M 8.984375 26.681641 C 8.8497839 26.671081 8.7139115 26.678288 8.5722656 26.705078 C 7.2802202 26.94871 7.3337985 28.454901 6.0957031 28.136719 C 5.4653283 27.974784 4.6043792 28.211178 4.0527344 28.753906 L 12 31 L 16.439453 29.570312 C 15.473654 28.073701 12.721087 25.847376 12 27.181641 C 11.052083 27.599255 9.9265154 26.755568 8.984375 26.681641 z"/>
 <path style="fill:#4caf50" d="M 3.8964844 3.3085938 C 3.8218595 3.3053562 3.7404907 3.3096278 3.6523438 3.3261719 C 3.6202612 3.3323827 3.5888894 3.3335519 3.5566406 3.34375 C 3.5361827 3.3502334 3.5163382 3.360819 3.4960938 3.3691406 C 3.436554 3.39368 3.3801916 3.4291137 3.3261719 3.4726562 C 3.3025145 3.4917757 3.2796466 3.5136982 3.2578125 3.5371094 C 3.2101525 3.5883275 3.1721747 3.655839 3.1367188 3.7304688 C 3.1210521 3.7634805 3.1024443 3.7919138 3.0898438 3.8300781 C 3.0497331 3.9516845 3.0216843 4.0941637 3.0214844 4.2753906 C 3.0214835 4.2761672 3.0214844 4.276566 3.0214844 4.2773438 L 3.0214844 11.443359 C 3.3184858 11.30263 3.7191361 11.113281 3.9277344 11.113281 C 4.5996177 11.113281 5.01198 11.272545 5.6972656 11.181641 C 6.120199 11.125421 6.4092677 10.7144 6.8027344 10.613281 C 7.1744723 10.517831 7.6628669 10.546611 8.0195312 10.363281 C 8.5064123 10.113189 9.1905516 9.3636267 9.5664062 7.75 C 9.6751418 7.2831 9.4335938 6.772195 9.4335938 6.2949219 C 9.4335938 6.0048932 9.7307898 5.4405968 10 5.0058594 L 4.1582031 3.3339844 L 4.1523438 3.3320312 C 4.1523438 3.3320312 4.1504068 3.3320358 4.1503906 3.3320312 C 4.1503906 3.3320312 4.0149983 3.3179108 3.8964844 3.3085938 z"/>
 <path style="fill:#81c784" d="M 15.845238,13.340908 15.535714,12.068181 13.833333,13.5 l 0.309524,1.272726 z"/>
 <path style="fill:#4d7687" d="M 7.3333333,24.31818 12,23.999999 13.678572,22.727271 V 19.704544 L 12,20.977271 7.3333333,21.454544 Z"/>
 <path style="fill:#df5050" d="M 13.76919,17.15909 13.304904,14.804544 12,15.727273 9.8095242,16.204545 9.0357143,12.227272 l -3.25,0.795455 1.2380948,6.761362 L 12,18.590908 Z"/>
 <path style="fill:#ff8a65" d="m 25.285714,7.7727267 v 2.8636363 l 2.630952,0.795453 V 8.5681817 Z"/>
 <path style="fill:#00bcd4" d="M 12,6.8181818 15.535714,5.5454542 V 6.8181818 L 14.607142,7.1363634 V 7.5590042 L 12,8.5681817 11.202381,8.4090901 V 6.6590906 Z"/>
 <path style="fill:#b89b00" d="m 23.273809,17.477272 2.630953,1.75 0.928571,-1.272728 -2.630952,-1.749999 z"/>
 <path style="fill:#b89b00" d="M 26.678168,12.704152 25.75,13.977796 l 2.63075,1.75 0.610786,-0.837583 v -0.647615 z"/>
 <path style="fill:#b89b00" d="m 24.511904,15.727273 2.630952,1.749999 0.928572,-1.272727 -2.630952,-1.75 z"/>
 <path style="fill:#646464" d="m 5.2597656,13.563322 -0.4640842,0.159745 1.0523004,6.204152 -0.1452908,5.175164 0.5275606,-0.08203 0.1438803,-5.124794 z m 0.970486,11.457031 -0.011288,0.379934 -0.52615,0.03166 0.00987,-0.329563 -0.07194,0.01152 -2.6095919,1.876645 v 0.16694 c 0,0 -0.054874,0.353804 0.02539,0.722451 L 5.7859114,25.909745 6.0948305,25.813325 12,25.431951 l 2.452578,-1.75 -0.155165,-0.795846 -2.297413,1.75 -5.75,0.381369 z"/>
 <ellipse style="fill:#222222;stroke:#ffffff;stroke-width:0.25105834;stroke-linecap:round;stroke-linejoin:round" cx="5.956" cy="25.448" rx=".418" ry=".43"/>
 <ellipse style="fill:#222222;stroke:#ffffff;stroke-width:0.25105834;stroke-linecap:round;stroke-linejoin:round" cx="14.452" cy="23.22" rx=".418" ry=".43"/>
 <ellipse style="fill:#222222;stroke:#ffffff;stroke-width:0.25105834;stroke-linecap:round;stroke-linejoin:round" cx="5.012" cy="13.675" rx=".418" ry=".43"/>
 <ellipse style="fill:#222222;stroke:#ffffff;stroke-width:0.25105834;stroke-linecap:round;stroke-linejoin:round" cx="6.095" cy="19.911" rx=".418" ry=".43"/>
 <path style="fill:#ffffff;opacity:0.3" d="M 3.0209664,4.2758166 V 27.15798 c 0,0 -0.2066177,1.235811 0.6773861,1.495738 L 12,30.999998 C 12,31 12,5.5789468 12,5.5789468 L 4.1517148,3.332478 c 0,0 -1.1307484,-0.320149 -1.1307484,0.9433386 z"/>
 <path style="fill:#ffffff;opacity:0.3" d="m 20,28.421051 7.769932,2.219615 c 1.315243,0.467749 1.222077,-0.933479 1.222077,-0.933479 V 6.642937 C 29.113591,5.44429 27.807559,5.1971862 27.807559,5.1971862 L 20,2.9999998 Z"/>
 <path style="opacity:0.1" d="M 25.964844,2 C 24.777076,2.037141 23.7222,3.1503771 23.318359,3.875 L 15.3125,18.529297 15.083984,22.541016 15,24 l 1.142578,-0.837891 3.142578,-2.30664 0.101563,-0.07422 8.177734,-14.7734375 C 28.48583,4.4404116 27.809925,2.6077071 26.802734,2.1640625 26.520912,2.0399263 26.238944,1.991429 25.964844,2 Z"/>
 <path style="fill:#b1a390" d="m 15.313157,17.52853 -0.229927,4.013366 1.059353,0.620195 3.142796,-2.306038 z"/>
 <path style="fill:#ffffff;opacity:0.2" d="M 20 3 L 12 5.578125 L 4.1523438 3.3320312 C 4.1523438 3.3320312 3.0214844 3.011903 3.0214844 4.2753906 L 3.0214844 5.2753906 C 3.0214844 4.011903 4.1523438 4.3320312 4.1523438 4.3320312 L 12 6.578125 L 20 4 L 27.806641 6.1972656 C 27.806641 6.1972656 29.11377 6.4439311 28.992188 7.6425781 L 28.992188 6.6425781 C 29.11377 5.4439311 27.806641 5.1972656 27.806641 5.1972656 L 20 3 z M 3.0214844 27.158203 C 3.0214844 27.158203 2.9902722 27.411408 3.0214844 27.703125 L 3.0214844 27.158203 z"/>
 <path style="fill:#505050" d="M 15.08323,21.541896 15,23 16.142578,22.162091 Z"/>
 <path style="fill:#a15f34" d="m 25.964524,1.0009691 c -1.187768,0.037141 -2.242427,1.1502864 -2.646268,1.8749093 l -8.005099,14.6526516 3.972222,2.327523 0.101562,-0.07448 8.177192,-14.7743988 C 28.48551,3.4397733 27.809605,1.6078984 26.802414,1.1642538 26.520592,1.0401176 26.238624,0.99239812 25.964524,1.0009691 Z"/>
 <path style="opacity:0" d="M 25.964844,2 C 24.777076,2.037141 23.7222,3.1503771 23.318359,3.875 L 15.3125,18.529297 15.083984,22.541016 15,24 l 1.142578,-0.837891 3.142578,-2.30664 0.101563,-0.07422 8.177734,-14.7734375 C 28.48583,4.4404116 27.809925,2.6077071 26.802734,2.1640625 26.520912,2.0399263 26.238944,1.991429 25.964844,2 Z"/>
</svg>
